Numix-GalliumOS/48/actions/go-first.svg

<svg width="48" xmlns="http://www.w3.org/2000/svg" height="48" viewBox="0 0 48 48" xmlns:xlink="http://www.w3.org/1999/xlink">
<g style="fill-rule:evenodd">
<path style="fill:#268bd2" d="M 4 24 C 4 35.042969 12.957031 44 24 44 C 35.042969 44 44 35.042969 44 24 C 44 12.957031 35.042969 4 24 4 C 12.957031 4 4 12.957031 4 24 Z "/>
<path style="fill:#fff;fill-opacity:.902" d="M 12 8 C 6 12 4 17.921875 4 24 C 4 30.066406 6 36 12 40 "/>
</g>
<path style="fill:#fff;fill-opacity:.902" d="M 12 23.992188 C 12 24.605469 12.261719 25.1875 12.6875 25.617188 L 20.125 33.304688 C 20.527344 33.730469 21.101562 33.976562 21.6875 33.992188 C 22.617188 34.023438 23.449219 33.496094 23.8125 32.617188 C 24.175781 31.742188 23.980469 30.714844 23.3125 30.054688 L 19.375 25.992188 L 36 25.992188 L 36 21.992188 L 19.375 21.992188 L 23.3125 17.929688 C 24.1875 17.03125 24.1875 15.582031 23.3125 14.679688 C 22.4375 13.78125 21 13.78125 20.125 14.679688 L 12.6875 22.367188 C 12.261719 22.800781 12 23.382812 12 23.992188 Z "/>
</svg>

<svg xmlns="http://www.w3.org/2000/svg" viewBox="0 0 48 48">
 <g transform="matrix(0,1,-1,0,48,0)" style="fill-rule:evenodd">
  <path d="m 24 4 c -11.04 0 -20 8.957 -20 20 0 4.508 1.511 8.655 4.03 12 7.971 2 21.971 2 31.941 0 2.518 -3.345 4.03 -7.492 4.03 -12 0 -11.04 -8.957 -20 -20 -20" style="fill:#268bd2"/>
  <path d="m 8 36 c 4 6 9.922 8 16 8 6.066 0 12 -2 16 -8" style="fill:#eaf4fb;fill-opacity:1"/>
 </g>
 <path d="m 12 23.993 c 0 0.613 0.262 1.195 0.688 1.625 l 7.438 7.688 c 0.402 0.426 0.977 0.672 1.563 0.688 0.93 0.031 1.762 -0.496 2.125 -1.375 0.363 -0.875 0.168 -1.902 -0.5 -2.563 l -3.938 -4.063 16.625 0 0 -4 -16.625 0 3.938 -4.063 c 0.875 -0.898 0.875 -2.348 0 -3.25 -0.875 -0.898 -2.313 -0.898 -3.188 0 l -7.438 7.688 c -0.426 0.434 -0.688 1.016 -0.688 1.625 z" style="fill:#eaf4fb;fill-opacity:1"/>
</svg>
